img/parceiros/handel.svg

<svg width="139" height="50" fill="none" xmlns="http://www.w3.org/2000/svg">
  <path d="M24.912 10.784 20.31 39.082h-6.612l1.68-10.218H8.256L6.61 39.082H0l4.639-28.298h6.575L9.242 22.732h7.122l1.974-11.948h6.575-.001Zm13.561 28.298.22-6.17h-6.1l-1.79 6.17h-6.977l9.388-28.298h12.053l.147 28.298H38.473Zm-1.497-21.42-2.885 9.983h4.785l.401-9.982h-2.301v-.001Zm36.807-6.878L69.18 39.082h-6.612l-4.601-15.484-2.484 15.485H48.87l4.639-28.299h6.794l4.53 14.464 2.373-14.464h6.577Zm15.425 0c3.19 0 5.467.865 6.83 2.594.999 1.31 1.497 2.948 1.497 4.913 0 .708-.06 1.454-.181 2.24l-1.425 8.765c-.487 2.96-1.681 5.332-3.58 7.114-1.9 1.782-4.359 2.672-7.38 2.672H74.34l4.64-28.298h10.228Zm-2.302 6.132h-2.374L81.939 32.95h3.47c1.144 0 2.033-.328 2.666-.982.658-.682 1.108-1.782 1.35-3.301l1.061-6.446c.092-.52.141-1.046.146-1.573 0-2.49-1.241-3.733-3.726-3.733v.001Zm30.206 22.166H98.775l4.641-28.298h18.337l-1.023 6.132h-11.762l-.84 5.306h9.716l-1.022 6.13h-9.717l-.73 4.599h11.762l-1.024 6.131h-.001Zm20.865 0H121.32l4.64-28.298h6.575l-3.616 22.167H139l-1.023 6.131Zm-64.506 5.036h63.543L135.029 50H71.486l1.985-5.882ZM6.95 0h69.5l-1.986 5.882h-69.5L6.95 0Z" fill="#9C9C9C"/>
</svg>

<svg width="139" height="50" viewBox="0 0 139 50" fill="none" xmlns="http://www.w3.org/2000/svg">
<g clip-path="url(#clip0_3_77)">
<path d="M24.912 10.784L20.31 39.082H13.698L15.378 28.864H8.256L6.61 39.082H0L4.639 10.784H11.214L9.242 22.732H16.364L18.338 10.784H24.912ZM38.473 39.082L38.693 32.912H32.593L30.803 39.082H23.826L33.214 10.784H45.267L45.414 39.082H38.473ZM36.976 17.662L34.091 27.645H38.876L39.277 17.663L36.976 17.662ZM73.783 10.784L69.18 39.082H62.568L57.967 23.598L55.483 39.083H48.87L53.509 10.784H60.303L64.833 25.248L67.206 10.784H73.783ZM89.208 10.784C92.398 10.784 94.675 11.649 96.038 13.378C97.037 14.688 97.535 16.326 97.535 18.291C97.535 18.999 97.475 19.745 97.354 20.531L95.929 29.296C95.442 32.256 94.248 34.628 92.349 36.41C90.449 38.192 87.99 39.082 84.969 39.082H74.34L78.98 10.784H89.208ZM86.906 16.916H84.532L81.939 32.95H85.409C86.553 32.95 87.442 32.622 88.075 31.968C88.733 31.286 89.183 30.186 89.425 28.667L90.486 22.221C90.578 21.701 90.627 21.175 90.632 20.648C90.632 18.158 89.391 16.916 86.906 16.916ZM117.112 39.082H98.775L103.416 10.784H121.753L120.73 16.916H108.968L108.128 22.222H117.844L116.822 28.352H107.105L106.375 32.951H118.137L117.112 39.082ZM137.977 39.082H121.32L125.96 10.784H132.535L128.919 32.951H139L137.977 39.082ZM73.471 44.118H137.014L135.029 50H71.486L73.471 44.118ZM6.95 0H76.45L74.464 5.882H4.964L6.95 0Z" fill="#9C9C9C"/>
</g>
<defs>
<clipPath id="clip0_3_77">
<rect width="139" height="50" fill="white"/>
</clipPath>
</defs>
</svg>
